!!!!SEGMENT: pl-kk--kk-i-338--002_gorczycki-grzegorz-gerwazy--rex-gloriose-martyrum.krn
!!!cenid: 17xx:1939
!!!COM: Gorczycki, Grzegorz Gerwazy
!!!COM-rismid: pe30009207
!!!CDT: ~1666-1734/04/30
!!!CNT: Polish
!!!OTL: Rex gloriose martyrum
!!!PDT:
!!!AGN: Sacred
!!!SMS-siglum: PL-Kk
!!!SMS-shelfmark: Kk.I.338
!!!SMS-shelfwork: 002 W
!!!SMS-variant:
!!!SMS-altvar:
!!!NIFC-rismid: 1001143667
!!!URL-scan: http://repozytorium.nifc.pl/skany/pl-kk-nut--i-338
!!!ONB-nifc: UWAGA: utwory w zbiorze: 1. Deus tuorum militum, 2. Rex gloriose martyrum, 3. Invicte Martyr unicum, 4. Tristes erant apostoli
!!!AIN: 1 alto 1 empty 1 tenor 1 vox
!!!key:
**kern	**text	**kern	**text	**dynam	**kern	**text	**kern	**text
*part4	*part4	*part3	*part3	*part3	*part2	*part2	*part1	*part1
*staff4	*staff4	*staff3	*staff3	*	*staff2	*staff2	*staff1	*staff1
*Iempty	*	*Itenor	*	*	*Ialto	*	*Ivox	*
*I"Baſso	*	*I"Tenore	*	*	*I"Alto	*	*I"Canto	*
*I'B	*	*I'T	*	*	*I'A	*	*I'C	*
*clefF4	*	*clefC4	*	*	*clefC3	*	*clefC1	*
*k[b-e-]	*	*k[b-e-]	*	*	*k[b-e-]	*	*k[e-b-]	*
*E-:	*	*E-:	*	*	*E-:	*	*E-:	*
*M3/2	*	*M3/2	*	*	*M3/2	*	*M3/2	*
=1	=1	=1	=1	=1	=1	=1	=1	=1
*2\right	*	*2\right	*	*	*2\right	*	*2\right	*
!LO:TX:a:t=P:problem=znaki BB- E- B-	!	!	!	!	!	!	!LO:TX:a:t=P:problem=znaki e- b- ee-	!
2C/	Rex	2G/	Rex	.	2e-X\	Rex	2cc\	Rex
(4F\	Glo-	2A-X/	Glo-	.	2f\	glo-	2cc\	Glo-
4E-\)	.	.	.	.	.	.	.	.
2D-X/	-ri-	2F/	-ri-	.	2f\	-ri-	2bn\	-ri-
=2	=2	=2	=2	=2	=2	=2	=2	=2
(2.C/	-o-	1G	-o-	.	1e-X	-o-	(2.cc\	-o-
4BB-/)	.	.	.	.	.	.	4dd\	.
2AA-X/	-se	2c\	-sa	.	2f\	-sa	2ee-X\)	-se
=3	=3	=3	=3	=3	=3	=3	=3	=3
2.GG/	Mar-	2.G/	Mar-	.	2.d\	Mar-	2.bn\	Mar-
4GG/	-tu-	4G/	-ty-	.	4d\	-tyr-	4b\	-ty-
2GG,</	-rym!	2G,</	-rum!	.	2d\	-um	2b\	-rum!
=4	=4	=4	=4	=4	=4	=4	=4	=4
2E-X\	Co-	2G/	Co-	.	2e-X\	Co-	2b-X\	Co-
2D\	-ro-	2F/	-ro-	.	2f\	-ro-	2b-\	-ro-
2E-\	-na	2E-X/	-na	.	2g\	-na	2b-\	-na
=5	=5	=5	=5	=5	=5	=5	=5	=5
(2.C/	con-	(2.G/	con-	.	(4c\	con-	(4cc\	con-
.	.	.	.	.	4d\	.	4b-\	.
.	.	.	.	.	4e-\	.	4cc\	.
8BB-/L	.	4A\)	.	.	4f\)	.	4dd\)	.
8AA/J)	.	.	.	.	.	.	.	.
2GG/	.	2B-\	.	.	2g\	.	[<2ee-\	-fi-
=6	=6	=6	=6	=6	=6	=6	=6	=6
2AA-X/	-fi-	2c\	-fi-	.	2f\	-fi-	2ee-\]	.
2.BB-/	-ten-	2.B-\	-ten-	.	2.f\	-ten-	2dd\	-ten-
.	.	.	.	.	.	.	2cc\	-ti-
4BB-/	-ti-	4B-\	-ti-	.	4f\	-ti-	.	.
=7	=7	=7	=7	=7	=7	=7	=7	=7
!	!	!	!	!	!	!	!LO:TX:a:t=P:global:problem=oddechy jako rozdzielacze słów	!
1.E-	-um!	1.B-	-um.	.	1.g,<	-um!	1.ee-,<	-um:
=8||	=8||	=8||	=8||	=8||	=8||	=8||	=8||	=8||
2E-\	Qui	2G/	Qui	.	2e-X\	Qui	2b-\	Qui
2E-\	reſ-	2An\	reſ-	.	2f\	reſ-	2cc\	reſ-
2Dn/	-pu-	2Bn\	-pu-	.	2f\	-pu-	2dd\	-pu-
!	!	!	!	!	!	!	!LO:LB:g=original	!
=9	=9	=9	=9	=9	=9	=9	=9	=9
1C	-en-	(2.c\	-en-	.	(2.g\	-en-	(2.ee-\	-en-
.	.	4B-X\)	.	.	4f\)	.	4dd\	.
*	*	*custos:B-	*	*	*	*	*	*
2F\	-tes	2An\	-tes	.	2e-\	-tes	2cc\)	-tes
!LO:LB:g=original	!	!LO:LB:g=original	!	!	!LO:LB:g=original	!	!	!
=10	=10	=10	=10	=10	=10	=10	=10	=10
2.B-\	ter-	2.B-\	ter-	.	2.f\	ter-	2.b-\	ter-
4BB-/	-re-	4B-\	-re-	.	4f\	-re-	4b-\	-re-
2BB-/	-a	2B-,<\	-a	.	2f\	-a	2b-\	-a
=11	=11	=11	=11	=11	=11	=11	=11	=11
2BB-/	per-	2B-\	per-	.	2d\	per-	2dd\	per-
2C/	-du-	2A-X/	-du-	.	2e-X\	-du-	2cc\	-du-
2D\	-cis	2A-/	-cis	.	2f\	-cis	2b-\	-cis
=12	=12	=12	=12	=12	=12	=12	=12	=12
2.E-X\	ad	2G/	ad	.	1g	ad	(2.b-\	ad
.	.	2G/	coe-	.	.	.	.	.
4D\	.	.	.	.	.	.	8cc\L	.
.	.	.	.	.	.	.	8dd\J)	.
2C/	.	2An/	.	.	[<2g\	coe-	2ee-\	.
=13	=13	=13	=13	=13	=13	=13	=13	=13
2BB-/	coe-	2B-X\	.	.	2g\]	.	2dd\	coe-
2.D\	-les-	2.A/	-les-	.	2g\	-les-	2.dd\	-les-
.	.	.	.	.	2f#X\	-ti-	.	.
4D\	-ti-	4A/	-ti-	.	.	.	4dd\	-ti-
=14	=14	=14	=14	=14	=14	=14	=14	=14
1.GG	-a	1.B-X,<	-a	.	1.g	-a	1.dd,<	-a
=15	=15	=15	=15	=15	=15	=15	=15	=15
2E-\	per-	2B-\	per-	.	2g\	per	2ee-X\	per-
2F\	-du-	2A-X/	-du-	.	2.fn\	du-	2dd\	-du-
2G\	-cis	2G/	-cis	.	.	.	2dd\	-cis
.	.	.	.	.	4f\	-cis	.	.
=16	=16	=16	=16	=16	=16	=16	=16	=16
2.A-X\	ad	4c\	ad	.	2e-X\	ad	1cc	ad
.	.	4B-\	.	.	.	.	.	.
.	.	2A-X/	.	.	4d\	.	.	.
4G\	.	.	.	.	4e-\	.	.	.
2F\	.	2G/	coe-	.	2f\	.	[<2cc\	coe-
=17	=17	=17	=17	=17	=17	=17	=17	=17
2C/	coe-	1G	-les-	.	2e-\	coe-	2cc\]	.
2G\	-les-	.	.	.	2.d\	-les-	2cc\	-les-
2GG/	-ti-	2G/	-ti-	.	.	.	2bn\	-ti-
.	.	.	.	.	4d\	-ti-	.	.
=18	=18	=18	=18	=18	=18	=18	=18	=18
0.C;	-a.	0.G;	-a.	.	1.en	-a.	0.cc;	-a.
=19-	=19	=19-	=19	=19	=19	=19	=19-	=19
.	.	.	.	.	1.ryy	.	.	.
!LO:LB:g=original	!	!LO:LB:g=original	!	!	!LO:LB:g=original	!	!LO:LB:g=original	!
=20	=20	=20	=20	=20	=20	=20	=20	=20
*M3/2	*	*M3/2	*	*	*M3/2	*	*M3/2	*
2E-\	Au-	2e-\	Au-	.	2g\	Au-	2b-\	Au-
2BB-/	-rem	2d\	-rem	.	2fn\	-rem	2b-\	-rem
2E-\	be-	2e-\	be-	.	2g\	be-	2b-\	be-
=21	=21	=21	=21	=21	=21	=21	=21	=21
1E-	-nig-	1c	-nig-	.	1fn	-nig-	1an	-ni-
2D/	-nam	2d\	-nam	.	2f\	-na	[<2b-\	-gnam
=22	=22	=22	=22	=22	=22	=22	=22	=22
1C	pro-	1e-X	pro-	.	2.g\	pro-	2b-\]	.
.	.	.	.	.	.	.	2b-\	pro-
.	.	.	.	.	4f\	.	.	.
2C/	-ti-	2e-\	-ti-	.	2e-\	-ti-	2an\	-ti-
=23	=23	=23	=23	=23	=23	=23	=23	=23
1.BB-	-nus	1.d,<	-nus,	.	1.f,<	-nus	1.b-,<	-nus,
=24	=24	=24	=24	=24	=24	=24	=24	=24
2G\	in-	2B-X\	in-	.	2g\	in-	2dd\	in-
2D\	-ten-	2An/	-ten-	.	2f#X\	-ten-	2dd\	-ten-
2G\	-de	2B-\	-de	.	2g\	-de	2dd\	-de
=25	=25	=25	=25	=25	=25	=25	=25	=25
4An\	no-	1c	nos-	.	1fn	nos-	1een	nos-
(4F\	.	.	.	.	.	.	.	.
4G\	.	.	.	.	.	.	.	.
4A\)	.	.	.	.	.	.	.	.
4B-\	.	[<2B-\	-tris	.	2f\	-tris	[<2dd\	-tris
4A\	.	.	.	.	.	.	.	.
=26	=26	=26	=26	=26	=26	=26	=26	=26
2G\	-stris	2B-\]	.	.	1en	vo-	2dd\],<	.
2An\	vo-	2.A/	sen-	.	.	.	2dd\	Vo-
2AA/	-ci-	.	.	.	2e\	-ci-	2cc#X\	-ci-
.	.	4A/	-ſi-	.	.	.	.	.
=27	=27	=27	=27	=27	=27	=27	=27	=27
1.D	-bus	1.A	-bus.	.	1.f#X	-bus:	1.dd	-bus.
=28||	=28||	=28||	=28||	=28||	=28||	=28||	=28||	=28||
!LO:N:vis=00	!	!	!	!LO:DY:t=For.	!	!	!	!
00.r	.	2F/	Tro-	f	2a\	Tro-	2ccn\	Tro-
.	.	2c\	-phe-	.	2gn\	-phe-	2cc\	-phe-
*	*	*custos:B	*	*	*	*	*	*
.	.	2An\	-a	.	2f\	-a	2cc\	-a
!	!	!LO:LB:g=original	!	!	!	!	!	!
=29	=29	=29	=29	=29	=29	=29	=29	=29
.	.	(2.B-\	sa-	.	1f	sa-	(2.dd\	sa-
.	.	4A\)	.	.	.	.	4cc\	.
.	.	2G/	-cra	.	2g\	-cra	2b-\)	-cra
=30	=30	=30	=30	=30	=30	=30	=30	=30
.	.	2.F/	pan-	.	2.a\	pan-	2.cc\	pan-
.	.	4F/	-gi-	.	4a\	-gi-	4cc\	-gi-
.	.	2F/	-m(us)	.	2a\	-m(us)	2cc\	-m(us)
!	!	!	!	!	!LO:LB:g=original	!	!LO:LB:g=original	!
=31	=31	=31	=31	=31	=31	=31	=31	=31
.	.	2F/	i-	.	2a\	i-	2a\	i-
.	.	2En/	-gnos-	.	2gn\	-gnos-	2cc#X\	-gnos-
.	.	2D/	-ce	.	2f\	-ce	2dd\	-ce
=32	=32	=32	=32	=32	=32	=32	=32	=32
!LO:N:vis=0	!	!	!	!	!	!	!	!
0.r	.	1C#X	quod	.	1g	quod	1een	quod
.	.	2D/	de-	.	2f\	de-	[<2dd\	de-
=33	=33	=33	=33	=33	=33	=33	=33	=33
.	.	2F/	-li-	.	1en	-li-	2dd\]	.
.	.	2G/	.	.	.	.	2dd\	-li-
.	.	2AA/	-qui-	.	2e\	-qui-	2cc#X\	-qui-
=34	=34	=34	=34	=34	=34	=34	=34	=34
!LO:TX:a:t=P:problem=pojedyncza kreska taktowa	!	!	!	!	!	!	!	!
1.r	.	1.D	-mus	.	1.f#X	-m(us).	1.dd	-mus.
=35||	=35||	=35||	=35||	=35||	=35||	=35||	=35||	=35||
2BB-/	Tro-	2B-X\	Tro-	.	2fn\	Tro-	2dd\	Tro-
2F\	-phe-	2An\	-phe-	.	2f\	-phe-	2cc\	-phe-
2D/	-a	2B-\	-a	.	2f\	-a	2dd\	-a
=36	=36	=36	=36	=36	=36	=36	=36	=36
2.E-X\	sa-	1G	sa-	.	(2.g\	sa-	1b-X	sa-
4D/	.	.	.	.	4f\)	.	.	.
2C/	-cra	2An/	-cra	.	2e-X\	-cra	2cc\	-cra
!LO:LB:g=original	!	!	!	!	!	!	!	!
=37	=37	=37	=37	=37	=37	=37	=37	=37
2.BB-/	pan-	2.B-\	pan-	.	2.f\	pan-	2.dd\	pan-
4BB-/	-gi-	4B-\	-gi-	.	4f\	-gi-	4dd\	-gi-
2BB-/	-m(us)	2B-\	-m(us)	.	2f\	-m(us)	2dd\	-m(us)
!	!	!LO:LB:g=original	!	!	!	!	!	!
=38	=38	=38	=38	=38	=38	=38	=38	=38
2B-\	i-	2B-\	i-	.	2d\	i-	2dd\	i-
2An\	-gnos-	2c\	-gnos-	.	2f#X\	-gnos-	2ccn\	-gnos-
2G\	-ce	2B-\	-ce	.	2g\	-ce	2dd\	-ce
=39	=39	=39	=39	=39	=39	=39	=39	=39
1F#X	quod	1c	quod	.	1an	quod	1dd	quod
2G\	de-	2B-\	de-	.	2g\	de-	2dd\	de-
=40	=40	=40	=40	=40	=40	=40	=40	=40
2C/	-li-	1An	-li-	.	1g	-li-	2ee-X\	-li-
2.D\	.	.	.	.	.	.	2.dd\	.
.	.	2A/	-qui-	.	2f#X\	-qui-	.	.
4D\	-qui-	.	.	.	.	.	4dd\	-qui-
=41	=41	=41	=41	=41	=41	=41	=41	=41
1.GG	-mus!	1.B-X	-mus.	.	1.g	-mus	1.dd	-mus.
!	!	!	!	!	!LO:LB:g=original	!	!LO:LB:g=original	!
=42	=42	=42	=42	=42	=42	=42	=42	=42
2E-X\	i-	2B-\	i-	.	2g\	i-	2g\	I-
2Dn/	-gnos-	2d\	-gnos-	.	2fn\	-gnos-	2bn\	-gnos-
2C/	-ce	2G/	-ce	.	2e-X\	-ces	2cc\	-ce
=43	=43	=43	=43	=43	=43	=43	=43	=43
1BBn	quod	1G	quod	.	1f	quod	1dd	quod
2C/	de-	2G/	de-	.	2e-X\	de-	[<2cc\	de-
=44	=44	=44	=44	=44	=44	=44	=44	=44
2F\	-li-	2A-X/	-li-	.	1d	-li-	2cc\]	.
2G\	.	2.G/	.	.	.	.	2cc\	-li-
2GG/	-qui-	.	.	.	2d\	-qui-	2bn\	qui-
.	.	4G/	-qui-	.	.	.	.	.
=45	=45	=45	=45	=45	=45	=45	=45	=45
0.C;	-mus.	0.G;	-mus.	.	0.en;	-m(us).	0.cc;	-m(us).
=46-	=46	=46-	=46	=46	=46-	=46	=46-	=46
.	.	.	.	.	.	.	.	.
!LO:LB:g=original	!	!LO:LB:g=original	!	!	!	!	!	!
=47||	=47||	=47||	=47||	=47||	=47||	=47||	=47||	=47||
*M3/2	*	*M3/2	*	*	*M3/2	*	*M3/2	*
2C/	Tu	2G/	Tu	.	2e-X\	Tu	2cc\	Tu
(4F\	vin-	2A-X/	vin-	.	2f\	vin-	2cc\	vin-
4E-\)	.	.	.	.	.	.	.	.
2D-X/	-cis	2F/	-cis	.	2f\	-cis	2bn\	-cis
=48	=48	=48	=48	=48	=48	=48	=48	=48
(2.C/	in-	1G	in-	.	1e-X	in-	2.cc\	in-
4BB-/	.	.	.	.	.	.	4dd\	.
2AA-X/)	-ter	2c\	-ter	.	2f\	-ter	2ee-X\	-ter
=49	=49	=49	=49	=49	=49	=49	=49	=49
2.GG/	Mar-	2.G/	Mar-	.	2.d\	Mar-	2.bn\	Mar-
4GG/	-ty-	4G/	-ty-	.	4d\	-ty-	4b\	-ty-
2GG/	-res	2G/	-res	.	2d\	-res	2b\	-res
=50	=50	=50	=50	=50	=50	=50	=50	=50
2E-X\	par-	2G/	par-	.	2e-X\	par-	2b-X\	par-
2D\	-cis-	2F/	-cis-	.	2f\	-cis-	2b-\	-ci-
2E-\	-q(ue)	2E-X/,<	-q(ue)	.	2g\	-q(ue)	2b-\	-q(ue)
=51	=51	=51	=51	=51	=51	=51	=51	=51
2.C/	Con-	(2.G/	Con-	.	(4c\	Con-	(4cc\	Con-
.	.	.	.	.	4d\	.	4b-\	.
.	.	.	.	.	4e-\	.	4cc\	.
(8BB-/L	.	4A\	.	.	4f\)	.	4dd\)	.
8AA/J)	.	.	.	.	.	.	.	.
2GG/	.	2B-\)	.	.	2g\	.	[<2ee-\	-feſ-
!	!	!	!	!	!LO:LB:g=original	!	!	!
=52	=52	=52	=52	=52	=52	=52	=52	=52
2AA-X/	-feſ-	2c\	-feſ-	.	2f\	-feſ-	2ee-\]	.
2.BB-/	-so-	2.B-\	-so-	.	2.f\	-so-	2ee-\	-so-
.	.	.	.	.	.	.	2dd\	-ri-
4BB-/	-ri-	4B-\	-ri-	.	4f\	-ri-	.	.
=53	=53	=53	=53	=53	=53	=53	=53	=53
*custos:E	*	*	*	*	*	*	*	*
1.E-	-bus	1.B-	-bus:	.	1.g;<	-bus:	1.ee-,<	-bus
!LO:LB:g=original	!	!	!	!	!	!	!LO:LB:g=original	!
=54||	=54||	=54||	=54||	=54||	=54||	=54||	=54||	=54||
2E-\	Tu	2G/	Tu	.	2e-X\	Tu	2b-\	Tu
2E-\	vin-	2An/	vin-	.	2f\	vin-	2cc\	vin-
2Dn/	-ce	2Bn/	-ce	.	2f\	-ce	2dd\	-ce
=55	=55	=55	=55	=55	=55	=55	=55	=55
1C	nos-	(2.c\	nos-	.	2.g\	nos-	(2.ee-X\	no-
!	!	!LO:TX:a:t=P:problem=♭ above	!	!	!	!	!	!
.	.	4B-X\	.	.	4f\	.	4dd\)	.
2F\	tra	2An\)	-tra	.	2e-\	-tra	2cc\	-stra
!	!	!LO:LB:g=original	!	!	!	!	!	!
=56	=56	=56	=56	=56	=56	=56	=56	=56
2.B-\	Cri-	2.B-\	Cri-	.	2.f\	Cri-	2.b-X\	cri-
4BB-/	-mi-	4B-\	-mi-	.	4f\	-mi-	4b-\	-mi-
2BB-/	-na	2B-\	-na	.	2f\	-na	2b-\	-na
=57	=57	=57	=57	=57	=57	=57	=57	=57
2BB-/	Lar-	2B-\	Lar-	.	2d\	Lar-	2dd\	lar-
2C/	-gi-	2A-X/	-gi-	.	2e-X\	-gi-	2cc\	-gi-
2D\	-tor	2A-/	-tor	.	2f\	-tor	2b-\	-tor
=58	=58	=58	=58	=58	=58	=58	=58	=58
2.E-X\	in-	1G	in-	.	1g	In-	(2.b-\	in-
4D\	.	.	.	.	.	.	8cc\L	.
.	.	.	.	.	.	.	8dd\J)	.
2C/	-dul-	4G/	-dul-	.	[<2g\	-dul-	2ee-\	.
.	.	4An/	.	.	.	.	.	.
=59	=59	=59	=59	=59	=59	=59	=59	=59
2BB-/	-gen-	2B-X\	.	.	2g\]	.	2dd\	-dul-
2.D\	.	2.A/	-gen-	.	2g\	-gen-	2.dd\	-gen-
.	.	.	.	.	2f#X\	-ti-	.	.
4D\	-ti-	4A/	-ti-	.	.	.	4dd\	-ti-
=60	=60	=60	=60	=60	=60	=60	=60	=60
1.GG	-ae	1.B-X,<	-ae.	.	1.g	-ae	1.dd,<	-ae
!	!	!	!	!	!LO:LB:g=original	!	!	!
=61	=61	=61	=61	=61	=61	=61	=61	=61
2E-\	Lar-	2B-\	Lar-	.	2g\	Lar-	2ee-X\	Lar-
2F\	-gi-	2A-X/	-gi-	.	2.fn\	-gi-	2dd\	-gi-
2G\	-tor	2G/	-tor	.	.	.	2dd\	-tor
.	.	.	.	.	4f\	-tor	.	.
!	!	!	!	!	!	!	!LO:LB:g=original	!
=62	=62	=62	=62	=62	=62	=62	=62	=62
(2.A-X\	in	(4c\	in	.	2e-X\	In-	1cc	In-
.	.	4B-\)	.	.	.	.	.	.
.	.	2A-X/	dul-	.	4d\	.	.	.
4G\)	.	.	.	.	4e-\	.	.	.
2F\	dul-	2G/	.	.	2f\	.	[<2cc\	-dul-
=63	=63	=63	=63	=63	=63	=63	=63	=63
2C/	-gen-	1G	-gen-	.	2e-X\	-dul-	2cc\]	.
2G\	.	.	.	.	2.d\	-gen-	2cc\	-gen-
2GG/	-ti-	2G/	-ti-	.	.	.	2bn\	-ti-
.	.	.	.	.	4d\	-ti-	.	.
=64	=64	=64	=64	=64	=64	=64	=64	=64
0.C;	-ae	0.G;	-ae	.	0.en;	-ae.	0.cc;	-ae.
=65-	=65	=65-	=65	=65	=65-	=65	=65-	=65
!LO:TX:b:t=vertat	!	!	!	!	!	!	!	!
.	.	.	.	.	.	.	.	.
!LO:PB:g=original	!	!LO:PB:g=original	!	!	!	!	!	!
=66||	=66||	=66||	=66||	=66||	=66||	=66||	=66||	=66||
*M3/2	*	*M3/2	*	*	*M3/2	*	*M3/2	*
2E-\	DE-	2e-\	DE-	.	2g\	DE-	2b-X\	DE-
2BB-/	-O	2d\	-O	.	2fn\	-O	2b-\	-O
2E-\	Pa-	2e-\	Pa-	.	2g\	Pa-	2b-\	Pa-
=67	=67	=67	=67	=67	=67	=67	=67	=67
1E-	-tri	1c	-tri	.	1fn	-tri	1an	-tri
2D/	sit	2d\	sit	.	2f\	sit	[<2b-\	Sit
=68	=68	=68	=68	=68	=68	=68	=68	=68
1C	glo-	1e-X	glo-	.	2.g\	Glo-	2b-\]	.
.	.	.	.	.	.	.	2b-\	glo-
.	.	.	.	.	4f\	.	.	.
2C/	-ri-	2e-\	-ri-	.	2e-X\	-ri-	2an\	-ri-
=69	=69	=69	=69	=69	=69	=69	=69	=69
1.BB-	-a	1.d	-a	.	1.f,<	-a,	1.b-	-a
!	!	!	!	!	!LO:PB:g=original	!	!LO:PB:g=original	!
=70	=70	=70	=70	=70	=70	=70	=70	=70
2G\	E-	2B-\	E-	.	2g\	e-	2dd\	E-
2D\	-jus	2An\	-jus	.	2f#X\	-jus-	2dd\	-jus-
2G\	que	2B-\	que	.	2g\	-que	2dd\	-q(ue)
=71	=71	=71	=71	=71	=71	=71	=71	=71
4An\	So-	1c	So-	.	1fn	So-	1een	So-
(4F\	.	.	.	.	.	.	.	.
4G\	.	.	.	.	.	.	.	.
4A\)	.	.	.	.	.	.	.	.
4B-\	.	[<2B-\	-li	.	2f\	-li	[<2dd\	-li
4A\	.	.	.	.	.	.	.	.
=72	=72	=72	=72	=72	=72	=72	=72	=72
2G,<\	-li	2B-\]	.	.	1en	Fi-	2dd\]	.
2A\	Fi-	2.An/	Fi-	.	.	.	2dd\	Fi-
2AA/	-li-	.	.	.	2e\	-li-	2cc#X\	-li-
.	.	4A/	-li-	.	.	.	.	.
=73	=73	=73	=73	=73	=73	=73	=73	=73
*	*	*custos:F	*	*	*	*	*	*
1.D	-o	1.A	-o.	.	1.f#X	-o.	1.dd	-o,
!LO:LB:g=original	!	!LO:LB:g=original	!	!	!	!	!	!
=74||	=74||	=74||	=74||	=74||	=74||	=74||	=74||	=74||
!LO:N:vis=00	!	!	!	!LO:DY:t=For.	!	!	!	!
00.r	.	2F/	Cum	f	2an\	Cum	2ccn\	Cum
.	.	2c\	Spi-	.	2g\	Spi-	2cc\	Spi-
.	.	2An\	-ri-	.	2fn\	-ri-	2cc\	-ri-
=75	=75	=75	=75	=75	=75	=75	=75	=75
.	.	2.B-\	-tu	.	1f	-tu	(2.dd\	-tus
.	.	4A\	.	.	.	.	4cc\)	.
.	.	2G/	Pa-	.	2g\	Pa-	2b-\	Pa-
=76	=76	=76	=76	=76	=76	=76	=76	=76
.	.	2.F/	-ra-	.	2.an\	-ra-	2.cc\	-ra-
.	.	4F/	-cli-	.	4a\	-cli-	4cc\	-cli-
.	.	2F/	-to	.	2a\	-to	2cc\	-to,
=77	=77	=77	=77	=77	=77	=77	=77	=77
.	.	2F/	in	.	2a\	in	2a\	in
.	.	2En/	Sem-	.	2g\	sem-	2cc#X\	Sem-
*	*	*	*	*	*	*	*custos:een	*
.	.	2D/	-pi-	.	2f\	-pi-	2dd\	-pi-
!	!	!	!	!	!LO:LB:g=original	!	!LO:LB:g=original	!
=78	=78	=78	=78	=78	=78	=78	=78	=78
!LO:N:vis=0	!	!	!	!	!	!	!	!
0.r	.	1C#X	-ter-	.	1g	-ter-	1een	-ter-
.	.	2D/	-na	.	2f\	-na	[<2dd\	-na
=79	=79	=79	=79	=79	=79	=79	=79	=79
.	.	2G/	sae-	.	1en	sae-	2dd\]	.
.	.	2A\	.	.	.	.	2dd\	Sae-
.	.	2AA/	-cu-	.	2e\	-cu-	2cc#X\	-cu-
=80	=80	=80	=80	=80	=80	=80	=80	=80
*	*	*custos:B	*	*	*	*	*	*
1.r	.	1.D	-la	.	1.f#X	-la.	1.dd	-la.
!	!	!LO:LB:g=original	!	!	!	!	!	!
=81||	=81||	=81||	=81||	=81||	=81||	=81||	=81||	=81||
2BB-/	Cum	2B-\	Cum	.	2fn\	Cum	2dd\	Cum
2F\	Spi-	2An\	Spi-	.	2f\	Spi-	2ccn\	Spi-
2D/	-ri-	2B-\	-ri-	.	2f\	-ri-	2dd\	-ri-
=82	=82	=82	=82	=82	=82	=82	=82	=82
2.E-X\	-tus	2.G/	-tu	.	(2.g\	-tu	1b-X	-tus
4D/	.	4A\	.	.	4f\)	.	.	.
2C/	Pa-	2A\	Pa-	.	2e-X\	Pa-	2cc\	Pa-
=83	=83	=83	=83	=83	=83	=83	=83	=83
2.BB-/	-ra-	2.B-\	-ra-	.	2.f\	-ra-	2.dd\	-ra-
4BB-/	-cli-	4B-\	-cli-	.	4f\	-cli-	4dd\	-cli-
2BB-,</	-to	2B-\	-to	.	2f\	-to	2dd\	-to
=84	=84	=84	=84	=84	=84	=84	=84	=84
2B-\	in	2B-\	in	.	2d\	in	2dd\	in
2An\	Sem-	2c\	Sem-	.	2f#X\	Sem-	2cc\	Sem-
2G\	-pi-	2B-\	-pi-	.	2g\	-pi-	2dd\	-pi-
=85	=85	=85	=85	=85	=85	=85	=85	=85
1F#X	-ter-	1c	-ter-	.	1an	-ter-	1dd	-ter-
*	*	*	*	*	*	*	*custos:ee-	*
2G\	-na	2B-\	-na	.	[<2g\	-na	2dd\	-na
!	!	!	!	!	!	!	!LO:LB:g=original	!
=86	=86	=86	=86	=86	=86	=86	=86	=86
2C/	sae-	1An	sae-	.	2g\]	.	2ee-\	Sae-
2.D\	.	.	.	.	2g\	sae-	2.dd\	.
.	.	2A\	-cu-	.	2f#X\	-cu-	.	.
4D\	-cu-	.	.	.	.	.	4dd\	-cu-
=87	=87	=87	=87	=87	=87	=87	=87	=87
1.GG	-la,	1.B-X	-la	.	1.g	-la	1.dd,<	-la
!LO:LB:g=original	!	!	!	!	!LO:LB:g=original	!	!	!
=88	=88	=88	=88	=88	=88	=88	=88	=88
2E-\	in	2B-\	in	.	2g\	in	2g\	in
2Dn\	Sem-	2d\	Sem-	.	2fn\	Sem-	2bn\	Sem-
*	*	*custos:G	*	*	*	*	*	*
2C/	-pi-	2G/	-pi-	.	2e-X\	-pi-	2cc\	-pi-
!	!	!LO:LB:g=original	!	!	!	!	!	!
=89	=89	=89	=89	=89	=89	=89	=89	=89
1BBn	-ter-	1G	-ter-	.	1f	-ter-	1dd	-ter-
2C/	-na	2G/	-na	.	2e-X\	-na	[<2cc\	-na
=90	=90	=90	=90	=90	=90	=90	=90	=90
2F\	sae-	2A-X/	sae-	.	1d	Sae-	2cc\]	.
2G\	.	2.G/	.	.	.	.	2cc\	Sae-
2GG/	-cu-	.	.	.	2d\	-cu-	2bn\	-cu-
.	.	4G/	-cu-	.	.	.	.	.
=91	=91	=91	=91	=91	=91	=91	=91	=91
0.C;	-la.	0.G;	-la	.	0.en;	-la	0.cc	-la
=92-	=92	=92-	=92	=92	=92-	=92	=92-	=92
.	.	.	.	.	.	.	.	.
=93||	=93||	=93||	=93||	=93||	=93||	=93||	=93||	=93||
0.F	A-	0.A-X	A-	.	0.f	A-	0.cc	A-
=94-	=94	=94-	=94	=94	=94-	=94	=94-	=94
.	.	.	.	.	.	.	.	.
=95	=95	=95	=95	=95	=95	=95	=95	=95
0.C;	-men.	0.G;	-men.	.	0.en;	-men.	0.cc;<	-men.
=96-	=96	=96-	=96	=96	=96-	=96	=96-	=96
!LO:TX:b:t=O ad m D.Gm.	!	!LO:TX:b:t=O ad M D.Gm	!	!	!LO:TX:b:t=O ad M.D.Gm	!	!LO:TX:b:t=O. ad M.D.Gm	!
.	.	.	.	.	.	.	.	.
==	==	==	==	==	==	==	==	==
*-	*-	*-	*-	*-	*-	*-	*-	*-
!!!system-decoration: [s1,s2,s3,s4]
!!!RDF**kern: < = below
!!!ENC: Marta Lawrence
!!!END: 2020-02-21
!!!ENC: Berenika Jozajtis
!!!END: 2021-02-07
